dist/img/svg/logo.svg

<svg width="32" height="34" viewBox="0 0 32 34" fill="none" xmlns="http://www.w3.org/2000/svg">
<path d="M23.9383 0.171026L23.9372 0.170599C23.874 0.144891 23.7858 0.123443 23.5731 0.10679C23.3606 0.0901454 23.0277 0.0785212 22.4774 0.0704768C21.3772 0.054394 19.4127 0.0526576 15.8144 0.0528315C15.3461 0.0524409 14.9044 0.0519892 14.4878 0.051562C11.032 0.0480159 9.30185 0.0462428 8.37834 0.0956965C7.86008 0.123449 7.60244 0.167178 7.43791 0.232559C7.30942 0.283615 7.2376 0.347189 7.13708 0.436178C7.11019 0.459979 7.08125 0.485598 7.04862 0.513284C6.88057 0.658831 6.67565 0.93236 6.58468 1.11974C6.54136 1.21114 6.51092 1.27608 6.48792 1.36633C6.46476 1.45722 6.44875 1.5756 6.43799 1.77217C6.41644 2.16594 6.41642 2.86198 6.41642 4.25546C6.41642 5.02133 6.42184 5.73702 6.42997 6.27099C6.43404 6.538 6.43878 6.75941 6.44385 6.91886C6.44638 6.99863 6.44899 7.06262 6.45163 7.10894C6.45294 7.13214 6.45425 7.15056 6.45552 7.16414C6.45616 7.17095 6.45675 7.17622 6.45729 7.18009C6.45781 7.18383 6.45812 7.18513 6.45806 7.18493L6.45827 7.1857C6.46916 7.22867 6.49251 7.26127 6.54215 7.29109C6.59447 7.32253 6.67426 7.34971 6.79553 7.37806C6.97909 7.41305 7.18669 7.46906 7.26212 7.50074C7.2637 7.4973 7.26567 7.49234 7.26786 7.48534C7.2829 7.43724 7.29527 7.33731 7.30479 7.14191C7.32366 6.75484 7.33083 6.01704 7.34168 4.63464L7.34269 4.48318C7.35278 2.96186 7.35785 2.19903 7.41428 1.78336C7.44355 1.56779 7.48745 1.43762 7.55858 1.34214C7.62274 1.25603 7.70689 1.20205 7.80532 1.13891C7.81448 1.13303 7.82376 1.12708 7.83316 1.12101C7.88901 1.08347 7.96325 1.05948 8.14521 1.0416C8.32823 1.02362 8.62805 1.01132 9.14177 1.00282C10.1699 0.985806 12.0616 0.983984 15.6053 0.983984H23.148H23.1974L23.198 1.03339L23.234 4.0401L23.2699 7.03345L23.4576 7.35077C23.4577 7.35086 23.4578 7.35095 23.4578 7.35105C23.564 7.52631 23.7698 7.77973 23.91 7.90471C23.9101 7.90476 23.9102 7.90482 23.9102 7.90488L23.9281 7.9205C24.055 8.03129 24.1451 8.10994 24.256 8.16962C24.371 8.23146 24.5111 8.2741 24.7404 8.30408C25.1767 8.3611 25.9202 8.37071 27.3939 8.38977C27.4799 8.39088 27.5685 8.39203 27.6596 8.39322L30.6549 8.42895L30.7042 8.42954L30.7043 8.47886L30.726 20.1053L30.726 20.1054C30.7295 24.1039 30.7276 27.0321 30.7177 28.985C30.7128 29.9613 30.7058 30.6941 30.6964 31.1949C30.6917 31.4453 30.6865 31.638 30.6805 31.7743C30.6776 31.8424 30.6744 31.8969 30.6711 31.9376C30.6679 31.9758 30.6643 32.0067 30.659 32.0248C30.6056 32.2211 30.4705 32.4336 30.3094 32.608C30.1487 32.7821 29.9553 32.9255 29.7803 32.9756L29.7791 32.9759L29.7791 32.9759C29.7688 32.9786 29.754 32.9804 29.7384 32.9819C29.7217 32.9835 29.7003 32.985 29.6746 32.9865C29.6232 32.9895 29.553 32.9923 29.4657 32.995C29.291 33.0005 29.0463 33.0056 28.7416 33.0103C28.1323 33.0196 27.2826 33.0274 26.273 33.0336C24.2538 33.046 21.5945 33.052 18.9388 33.0515C16.283 33.0511 13.6306 33.0441 11.6249 33.0306C10.6221 33.0239 9.78079 33.0155 9.18158 33.0054C8.88202 33.0004 8.64272 32.9949 8.4739 32.989C8.38955 32.9861 8.32241 32.983 8.27401 32.9798C8.24986 32.9782 8.22987 32.9766 8.21451 32.9748C8.20195 32.9734 8.18628 32.9713 8.1749 32.9671C7.90939 32.8692 7.64795 32.6311 7.49164 32.343C7.46028 32.2868 7.43759 32.213 7.41957 32.0807C7.40154 31.9482 7.38772 31.753 7.37643 31.4516C7.35384 30.8485 7.34116 29.8132 7.32664 27.988L23.9383 0.171026ZM23.9383 0.171026C23.9906 0.190832 24.0842 0.253613 24.2434 0.386773M23.9383 0.171026L24.2434 0.386773M24.3422 6.949L24.3416 6.94824C24.3036 6.89721 24.2724 6.84922 24.2489 6.76703C24.226 6.68735 24.2107 6.57686 24.1993 6.40073C24.1767 6.04816 24.1694 5.41806 24.1586 4.21254M24.3422 6.949L24.1586 4.21254M24.3422 6.949L24.3428 6.94973M24.3422 6.949L24.3428 6.94973M24.1586 4.21254C24.1514 3.5249 24.1532 2.89987 24.1604 2.4466C24.164 2.22002 24.1689 2.03602 24.1748 1.90846C24.1777 1.84481 24.1808 1.7945 24.1842 1.75976C24.1859 1.74265 24.1878 1.7279 24.19 1.71683C24.191 1.71168 24.1926 1.70482 24.1952 1.69829C24.1964 1.69527 24.1991 1.68924 24.204 1.68312C24.2083 1.67775 24.2216 1.66367 24.2443 1.66367C24.2542 1.66367 24.2616 1.66661 24.264 1.66758C24.2674 1.66894 24.2701 1.67042 24.2718 1.67141C24.2753 1.67342 24.2785 1.67566 24.2809 1.67747C24.286 1.68123 24.2921 1.68617 24.2986 1.69174C24.3119 1.70305 24.33 1.71939 24.3524 1.74011C24.3973 1.78167 24.461 1.84239 24.5405 1.91936C24.6997 2.07338 24.9235 2.29335 25.19 2.55739C25.723 3.0855 26.4275 3.79033 27.13 4.49735C27.8324 5.20437 28.5329 5.91367 29.0578 6.45073C29.3202 6.71924 29.5389 6.94481 29.692 7.10556C29.7685 7.18589 29.8289 7.25028 29.8702 7.29582C29.8908 7.31852 29.9071 7.33697 29.9184 7.35056C29.9239 7.35726 29.9289 7.36349 29.9327 7.36881C29.934 7.37066 29.9355 7.37289 29.937 7.37535C29.9376 7.37631 29.9382 7.37732 29.9387 7.37834C29.9397 7.38015 29.9411 7.38291 29.9424 7.3863C29.9434 7.38893 29.9459 7.39593 29.9459 7.40512C29.9459 7.43336 29.9246 7.4467 29.9217 7.44851L29.9216 7.44853C29.9157 7.45225 29.9101 7.45409 29.9076 7.45487C29.9018 7.45666 29.8957 7.45775 29.8909 7.45849C29.8805 7.46008 29.8665 7.46144 29.8499 7.46267C29.8162 7.46517 29.7673 7.46746 29.7052 7.46953C29.5808 7.47369 29.4013 7.47704 29.1801 7.47928C28.7377 7.48375 28.1275 7.48375 27.4559 7.47663C26.3164 7.46588 25.703 7.45868 25.3459 7.43708C25.1673 7.42627 25.0501 7.41173 24.9621 7.39055C24.8725 7.36897 24.8142 7.34077 24.7534 7.30496M24.1586 4.21254L24.7534 7.30496M24.3428 6.94973C24.4327 7.06125 24.6102 7.22259 24.7534 7.30496M24.3428 6.94973L24.7534 7.30496M24.2434 0.386773C24.4006 0.51824 24.6167 0.713858 24.9124 0.992892M24.2434 0.386773L24.9124 0.992892M24.9124 0.992892C25.5037 1.55084 26.4108 2.43993 27.7966 3.81082M24.9124 0.992892L27.7966 3.81082M27.7966 3.81082C28.8179 4.82362 29.7235 5.73442 30.3836 6.41072M27.7966 3.81082L30.3836 6.41072M30.3836 6.41072C30.7137 6.7489 30.9822 7.02828 31.1731 7.23238C31.2686 7.33447 31.3444 7.41746 31.3987 7.47944C31.4258 7.51046 31.4473 7.53589 31.4631 7.55565C31.479 7.57566 31.4871 7.58735 31.4899 7.59241M30.3836 6.41072L31.4899 7.59241M31.4899 7.59241C31.5158 7.64559 31.5388 7.72007 31.5569 7.98814C31.5751 8.25681 31.5881 8.71368 31.598 9.52814C31.6178 11.1565 31.625 14.2095 31.6359 20.0337L31.4899 7.59241ZM7.29071 23.8832L7.32664 27.9879L31.6359 20.0337L31.6502 32.215L31.4672 32.6272C31.2695 33.0541 30.8008 33.5541 30.3704 33.7852L30.3702 33.7853C30.3202 33.8124 30.2561 33.8364 30.0162 33.8554C29.7764 33.8744 29.3672 33.8881 28.6313 33.8983C27.1602 33.9189 24.389 33.926 19.0692 33.9368L8.00827 33.951L7.63699 33.7773C7.63678 33.7772 7.63657 33.7771 7.63636 33.777C7.17869 33.5462 6.74742 33.0766 6.55706 32.5805C6.4914 32.3987 6.45544 32.2706 6.43652 31.5628C6.41756 30.854 6.41572 29.5699 6.41572 27.0782V22.1623L6.8052 22.9341L6.80533 22.9344L7.29071 23.8832Z" fill="white" stroke="white"/>
<path d="M3.39287 4.81223L3.39236 4.8121C3.27504 4.78297 3.16462 4.78399 2.92568 4.86799C2.68421 4.95288 2.31868 5.11993 1.69336 5.41763L1.69321 5.4177C1.01693 5.73684 0.643835 5.92121 0.424868 6.06894C0.316253 6.14222 0.248143 6.20485 0.20035 6.26834C0.152733 6.3316 0.123253 6.39838 0.0952574 6.48345C0.0698515 6.56079 0.0535536 6.61477 0.0505545 6.67474C0.0475897 6.73402 0.0575911 6.80273 0.0916892 6.90676C0.160745 7.11743 0.322907 7.45712 0.648573 8.12838L0.648634 8.12851L1.16841 9.20757L2.96398 8.34145L2.96413 8.34138C3.47303 8.09793 3.94419 7.87585 4.29455 7.71459C4.4697 7.63398 4.6149 7.56845 4.71964 7.52303C4.77194 7.50034 4.81457 7.48249 4.84596 7.47023C4.86158 7.46413 4.87499 7.45919 4.88569 7.45571C4.89101 7.45397 4.89624 7.45241 4.90106 7.45123C4.90488 7.45029 4.91215 7.44862 4.92008 7.44862C4.94205 7.44862 4.96502 7.45695 4.98407 7.46573C5.00465 7.47521 5.02711 7.48833 5.04985 7.50367C5.09532 7.53436 5.14526 7.57624 5.1877 7.62223L5.18835 7.62294L5.18897 7.62367C5.19716 7.63326 5.20754 7.64969 5.21861 7.6683C5.23047 7.68822 5.24537 7.71453 5.26305 7.74668C5.29846 7.81105 5.34569 7.90004 5.40328 8.01069C5.51849 8.23206 5.67561 8.54107 5.86332 8.91524C6.23876 9.66364 6.73688 10.6733 7.26742 11.7651L7.26748 11.7653C7.79437 12.8568 8.28871 13.8642 8.65943 14.6077C8.8448 14.9794 8.99919 15.285 9.11126 15.502C9.16731 15.6106 9.21266 15.6968 9.24595 15.7579C9.26261 15.7885 9.27608 15.8125 9.28626 15.8298C9.29643 15.8471 9.3013 15.854 9.30211 15.8552L3.39287 4.81223ZM3.39287 4.81223C3.54792 4.84901 3.67027 4.91986 3.7962 5.07194C3.92426 5.22661 4.05553 5.4647 4.22501 5.83663L4.22511 5.83684M3.39287 4.81223L4.22511 5.83684M4.22511 5.83684C4.36202 6.13356 4.4573 6.32303 4.53005 6.43399C4.56609 6.48898 4.59962 6.52951 4.63351 6.55345C4.67049 6.57959 4.71103 6.58768 4.75164 6.57095L4.75175 6.5709M4.22511 5.83684L4.75175 6.5709M4.75175 6.5709C4.9964 6.46942 5.11922 6.42093 5.2035 6.40866M4.75175 6.5709L5.2035 6.40866M4.27051 5.81589C3.93121 5.07132 3.73637 4.84233 3.40441 4.76358L4.27051 5.81589ZM4.27051 5.81589C4.54475 6.41023 4.64584 6.56046 4.73259 6.52472L4.27051 5.81589ZM5.2035 6.40866C5.24293 6.40292 5.27187 6.40558 5.3003 6.41443M5.2035 6.40866L5.3003 6.41443M5.3003 6.41443C5.33039 6.42379 5.36195 6.44063 5.40695 6.46741M5.3003 6.41443L5.40695 6.46741M5.40695 6.46741C5.41557 6.47254 5.4345 6.49022 5.46594 6.5327C5.49602 6.57336 5.53403 6.63173 5.5816 6.71144C5.67666 6.87073 5.80781 7.1117 5.98724 7.4587C6.34598 8.1525 6.89604 9.26699 7.73329 10.9924M5.40695 6.46741L9.30224 15.8554C9.40512 15.9665 9.54934 15.9825 9.6703 15.93C9.79095 15.8775 9.88561 15.7577 9.88652 15.5978C9.88635 15.5971 9.88602 15.5956 9.88542 15.5934C9.88397 15.588 9.88158 15.5804 9.87806 15.5703C9.87105 15.5501 9.86036 15.5223 9.84601 15.4869C9.81735 15.4163 9.77491 15.3178 9.72005 15.1941C9.61039 14.947 9.45174 14.6012 9.25599 14.1821C8.86452 13.3438 8.32508 12.2129 7.73329 10.9924M7.73329 10.9924L7.77828 10.9706M7.73329 10.9924L7.77828 10.9706M7.77828 10.9706C8.96199 13.4118 9.93652 15.4952 9.93652 15.5955C9.93652 15.9605 9.50347 16.1468 9.26526 15.889L7.77828 10.9706Z" fill="white" stroke="white"/>
<path d="M8.49742 16.4718L8.49776 16.4723C8.60822 16.6082 8.78413 16.7372 8.96733 16.8331C9.15003 16.9287 9.34732 16.9951 9.50249 16.999L9.50249 16.999H9.50375C9.51871 16.999 9.53105 17.0012 9.54421 17.0075C9.55805 17.0141 9.57555 17.0265 9.59839 17.0508C9.64501 17.1006 9.70655 17.1922 9.79942 17.359C9.9844 17.6911 10.285 18.3051 10.8303 19.4334C11.155 20.1098 11.4508 20.7325 11.6645 21.1896C11.7714 21.4182 11.8577 21.6051 11.9167 21.7366C11.9462 21.8025 11.9688 21.854 11.9837 21.8899C11.9876 21.8993 11.9909 21.9074 11.9937 21.9143C11.9908 21.9161 11.9876 21.9181 11.9841 21.9203C11.9591 21.9357 11.9218 21.9569 11.8731 21.9833C11.776 22.0361 11.6361 22.1085 11.4634 22.1957C11.1183 22.37 10.6442 22.6026 10.1247 22.8532C10.1247 22.8532 10.1246 22.8532 10.1246 22.8532L8.26412 23.7412L8.15612 23.5206L8.15588 23.5201C8.10935 23.4276 7.46656 22.1046 6.54108 20.1999C6.03726 19.163 5.44967 17.9537 4.8289 16.6766L1.65329 10.1351L2.98603 9.49147L2.98632 9.49133C3.74583 9.11831 4.43547 8.79058 4.52674 8.75591L4.52675 8.75592L4.52781 8.75549C4.56675 8.73967 4.58249 8.7382 4.59718 8.74376C4.61562 8.75075 4.64451 8.77365 4.6922 8.84434C4.78624 8.98376 4.92868 9.26936 5.20034 9.82601C5.5107 10.4705 6.33334 12.1669 7.03357 13.606C7.38019 14.3258 7.71782 15.0063 7.98239 15.5239C8.11465 15.7827 8.22876 16.001 8.31664 16.1632C8.36057 16.2443 8.39808 16.3116 8.42811 16.3631C8.45755 16.4136 8.48133 16.4516 8.49742 16.4718Z" fill="white" stroke="white"/>
<path d="M12.4843 22.8333C12.4843 22.8336 12.4843 22.8342 12.4843 22.8349C12.4843 22.8344 12.4843 22.8338 12.4843 22.8333ZM12.4698 22.8797C12.4762 22.8777 12.4818 22.8762 12.4867 22.8749C12.4887 22.9062 12.4918 22.9541 12.4958 23.0154C12.5032 23.1271 12.5138 23.2871 12.5269 23.4835C12.5531 23.8764 12.5892 24.4151 12.6289 25.0058C12.7084 26.1882 12.7732 27.3313 12.7732 27.5512C12.7732 27.6675 12.7657 27.7625 12.7509 27.8376C12.7361 27.9132 12.7147 27.9654 12.6894 27.9991C12.6653 28.0312 12.6373 28.0471 12.6038 28.0514C12.5682 28.0558 12.5215 28.0477 12.4612 28.0213C12.4534 28.0175 12.4314 28.0029 12.3929 27.9734C12.3557 27.945 12.307 27.9059 12.2483 27.8575C12.131 27.7606 11.9749 27.6273 11.7933 27.4696C11.4302 27.1543 10.9663 26.7422 10.509 26.3302C10.0517 25.9183 9.60126 25.5066 9.26527 25.1922C9.09722 25.035 8.95807 24.9023 8.86106 24.8062C8.81247 24.7581 8.77493 24.7196 8.74974 24.6919C8.74594 24.6878 8.74249 24.6839 8.73937 24.6804C8.7627 24.6645 8.79801 24.6428 8.84472 24.6158C8.93829 24.5618 9.07424 24.4884 9.24274 24.4008C9.57955 24.2258 10.0446 23.9951 10.5566 23.7518C11.3869 23.3579 11.8859 23.1238 12.1774 22.9962C12.3236 22.9322 12.4153 22.896 12.4698 22.8797Z" fill="white" stroke="white"/>
<line x1="10.8447" y1="10.4951" x2="25.8605" y2="10.4951" stroke="white"/>
<line x1="10.8447" y1="12.9414" x2="25.8605" y2="12.9414" stroke="white"/>
<path d="M10.8447 15.6836H25.8605" stroke="white"/>
<path d="M10.8447 18.1885H25.8605" stroke="white"/>
<path d="M10.8447 20.5615H25.8605" stroke="white"/>
<path d="M10.8447 23.1963L25.8605 23.1965" stroke="white"/>
<line y1="-0.5" x2="15.0157" y2="-0.5" transform="matrix(1 -1.19402e-05 1.03139e-05 1 10.8447 25.833)" stroke="white"/>
<line y1="-0.5" x2="15.0157" y2="-0.5" transform="matrix(1 7.87547e-06 -6.17828e-06 1 10.8447 28.4688)" stroke="white"/>
</svg>

<svg width="32" height="34" viewBox="0 0 32 34" fill="none" xmlns="http://www.w3.org/2000/svg"><path d="M23.938.171h0c-.064-.026-.152-.048-.365-.064A19.175 19.175 0 0022.477.07c-1.1-.016-3.064-.017-6.663-.017L14.488.052C11.032.048 9.302.046 8.378.096c-.518.027-.776.071-.94.137a.943.943 0 00-.3.203l-.09.077c-.167.146-.372.42-.463.607a1.267 1.267 0 00-.097.246c-.023.091-.04.21-.05.406-.022.394-.022 1.09-.022 2.483 0 .766.006 1.482.014 2.016a41.715 41.715 0 00.022.838 1.577 1.577 0 00.005.071l.001.005h0c.011.044.035.076.084.106a.92.92 0 00.254.087c.183.035.39.091.466.123a1.69 1.69 0 00.043-.359c.019-.387.026-1.125.037-2.507v-.152c.01-1.521.016-2.284.072-2.7.03-.215.073-.345.145-.44a.869.869 0 01.246-.204l.028-.018c.056-.038.13-.062.312-.08.183-.017.483-.03.997-.038 1.028-.017 2.92-.019 6.463-.019h7.593v.05l.036 3.006.036 2.993.188.318s0 0 0 0a2.94 2.94 0 00.452.554l.018.015c.127.111.217.19.328.25.115.061.255.104.484.134.437.057 1.18.067 2.654.086l.266.003 2.995.036h.05v.05l.021 11.626h0c.004 3.999.002 6.927-.008 8.88-.005.976-.012 1.71-.022 2.21a24.732 24.732 0 01-.025.743.52.52 0 01-.012.087 1.504 1.504 0 01-.35.583c-.16.174-.354.318-.529.368h0a1.806 1.806 0 01-.104.01 48.416 48.416 0 01-.933.024 291 291 0 01-2.47.024c-2.02.012-4.678.018-7.334.017-2.656 0-5.308-.007-7.314-.02a259.136 259.136 0 01-2.443-.026 41.7 41.7 0 01-.908-.025 1.255 1.255 0 01-.06-.005.183.183 0 01-.04-.008c-.265-.098-.526-.336-.682-.624a.726.726 0 01-.072-.262 6.965 6.965 0 01-.044-.63 150.8 150.8 0 01-.05-3.463L23.939.171zm0 0c.053.02.146.083.305.216M23.938.17l.305.216m.1 6.562h-.001a.512.512 0 01-.093-.182 1.808 1.808 0 01-.05-.366c-.022-.353-.03-.983-.04-2.188m.183 2.736l-.183-2.736m.183 2.736h0m0 0h0m-.183-2.736a70.31 70.31 0 01.001-1.766c.004-.227.009-.411.015-.539a3.12 3.12 0 01.015-.191.106.106 0 01.005-.019.06.06 0 01.009-.015.052.052 0 01.068-.012 11.627 11.627 0 015.647 5.68.366.366 0 01.02.027.053.053 0 01.007.027.051.051 0 01-.024.044h0a.06.06 0 01-.014.006 3.858 3.858 0 01-.202.015c-.125.004-.305.007-.526.01-.442.004-1.052.004-1.724-.003-1.14-.011-1.753-.018-2.11-.04a2.285 2.285 0 01-.384-.046.705.705 0 01-.209-.086m-.594-3.092l.594 3.092m-.41-.355c.09.111.267.273.41.355m-.41-.355l.41.355m-.51-6.918c.158.131.374.327.67.606m-.67-.606l.67.606m0 0c.59.558 1.498 1.447 2.884 2.818M24.912.993l2.885 2.818m0 0a237.446 237.446 0 012.587 2.6m-2.587-2.6l2.587 2.6m0 0c.33.338.598.617.79.821a10.864 10.864 0 01.29.324l.026.036m-1.106-1.181l1.106 1.181m0 0c.026.054.049.128.067.396.018.269.031.726.041 1.54.02 1.628.027 4.681.038 10.506L31.49 7.592zM7.29 23.883l.037 4.105 24.309-7.954.014 12.181-.183.412c-.197.427-.666.927-1.097 1.158h0c-.05.027-.114.051-.354.07-.24.02-.649.033-1.385.043-1.47.02-4.242.028-9.562.039l-11.06.014-.372-.174s0 0 0 0c-.458-.23-.89-.7-1.08-1.197-.066-.181-.102-.31-.12-1.017-.02-.709-.021-1.993-.021-4.485v-4.916l.39.772h0l.485.95z" fill="#fff" stroke="#fff"/><path d="M3.393 4.812h0c-.118-.029-.228-.028-.467.056-.242.085-.607.252-1.233.55h0c-.676.319-1.05.503-1.268.65a.9.9 0 00-.225.2.707.707 0 00-.105.215.718.718 0 00-.044.192.634.634 0 00.04.232c.07.21.232.55.558 1.221h0l.52 1.08 1.795-.867h0c.509-.243.98-.465 1.33-.626a22.6 22.6 0 01.552-.245.765.765 0 01.055-.019.08.08 0 01.02-.002.16.16 0 01.063.017.813.813 0 01.204.157h.001a2.757 2.757 0 01.074.123c.035.065.083.154.14.265.115.221.273.53.46.904.376.749.874 1.758 1.404 2.85h0a258.791 258.791 0 001.392 2.843 75.887 75.887 0 00.587 1.15l.04.072.016.025-5.91-11.043zm0 0a.7.7 0 01.403.26c.128.155.26.393.429.765h0m-.832-1.025l.832 1.025m0 0c.137.297.232.486.305.597.036.055.07.096.104.12a.118.118 0 00.118.017h0m-.527-.734l.527.734m0 0c.244-.102.367-.15.452-.162m-.452.162l.452-.162m-.933-.593c-.34-.745-.535-.974-.867-1.052l.867 1.052zm0 0c.274.594.375.744.462.709l-.462-.71zm.933.593a.208.208 0 01.096.005m-.096-.005l.096.005m0 0a.52.52 0 01.107.053M5.3 6.414l.107.053m0 0a.278.278 0 01.059.066c.03.04.068.099.116.178.095.16.226.4.405.748.359.694.909 1.808 1.746 3.533M5.407 6.467l3.895 9.388a.317.317 0 00.368.075.359.359 0 00.217-.332l-.002-.005a10.77 10.77 0 00-.165-.4c-.11-.246-.268-.592-.464-1.01-.391-.84-.93-1.97-1.523-3.19m0 0l.045-.022m-.045.021l.045-.021m0 0c1.184 2.44 2.159 4.524 2.159 4.624 0 .365-.434.552-.672.294l-1.487-4.918z" fill="#fff" stroke="#fff"/><path d="M8.497 16.472h0c.111.136.287.265.47.361.183.096.38.162.535.166h.002c.015 0 .027.002.04.009a.19.19 0 01.054.043c.047.05.109.141.201.308.185.332.486.946 1.031 2.074.325.677.62 1.3.835 1.757a41.761 41.761 0 01.319.7l.01.024a87.486 87.486 0 01-1.869.939s0 0 0 0l-1.86.888-.109-.22h0a25481.109 25481.109 0 00-3.327-6.843l-3.176-6.543 1.333-.644h0c.76-.373 1.45-.7 1.54-.735h.002c.039-.016.054-.018.07-.012.018.007.047.03.094.1.094.14.237.425.508.982.31.644 1.133 2.34 1.834 3.78.346.72.684 1.4.948 1.918.133.259.247.477.335.64l.111.2c.03.05.053.088.07.108zm3.987 6.361v0zm-.014.047a.389.389 0 01.017-.005 113.308 113.308 0 00.04.608l.102 1.523c.08 1.182.144 2.325.144 2.545 0 .117-.007.212-.022.287a.398.398 0 01-.062.161.122.122 0 01-.085.052.28.28 0 01-.143-.03.593.593 0 01-.068-.048 5.227 5.227 0 01-.145-.115c-.117-.097-.273-.23-.455-.388a99.708 99.708 0 01-1.284-1.14 94.678 94.678 0 01-1.244-1.138c-.168-.157-.307-.29-.404-.386a3.283 3.283 0 01-.111-.114c-.004-.004-.008-.008-.01-.012a1.8 1.8 0 01.105-.064c.093-.054.23-.128.398-.215a72.863 72.863 0 012.935-1.405c.146-.064.237-.1.292-.116z" fill="#fff" stroke="#fff"/><path stroke="#fff" d="M10.845 10.495H25.86m-15.015 2.446H25.86m-15.015 2.743H25.86m-15.015 2.505H25.86m-15.015 2.372H25.86m-15.015 2.635H25.86m-15.015 2.137h15.016m-15.016 2.636h15.016"/></svg>
